assets/images/icon-plus.svg

<svg xmlns="http://www.w3.org/2000/svg" width="67" height="67" viewBox="0 0 67 67"><path d="m15.09 31.1H31v-16h5v16h15.91v4.9H36v16h-5v-16H15.09zM0 67h67v-67h-67z"/></svg>

<svg xmlns="http://www.w3.org/2000/svg" width="67" height="67" viewBox="0 0 67 67"><path d="M15.09,31.1H31v-16H36v16H51.91V36H36V52H31V36H15.09ZM0,67H67V0H0Z"/></svg>
